X: 3455
T: Betty Black
R: barndance
M: 4/4
K: Dmajor
A|GFED A2 d2|GFED A,2 D2|GFED A2 d2|A2 D2 D3 G|
GFED A2 d2|GFED A,2 D2|GFED A2 d2|A2 D2 D3||
f|fefg a2 A2|BABc d3 g|fefg a2 Ad|BABc d3 g|
fefg a2 Ad|BABc dgeg|fefg a2 Ad|BABc d3||
F|DEEF GBAG|FDFA dA F/E/D|E3 F GBAG|F2 D2 D2 FD|
E3 F GBAG|F/E/D FA dAFA|E3 F GBAG|F2 D2 D2||
B/c/d|f4 f3 A-|Adfd Adfd|f4 f3 A-|Acec d/e/d eg|
f4 f3 A-|Adfd Adfd|f4 f3 A-|Acec d2||
eg|f2 d2 dc c/B/A|FAGB Aceg|f2 d2 dc c/B/A|A2 D2 D2 e/e/g|
f2 d2 dc c/B/A|FAGB Aceg|f2 d2 dc c/B/A|A2 D2 D3||
A|defg ag g/f/e|faed dcBA|defg agfe|f/g/a ec d2 A/B/c|
defg ag g/f/e|fgec dc c/B/A|defg agfe|faec d3||

